X:1
T:The King's Reel
M:C
L:1/8
Q:80
C:Trad. Arr. Bruce Gandy
S:Reel
K:HP
|: {gAGAG}A2eA{g}fAeA | \
{gAGAG}A2ed{g}B{d}A{e}A{d}B | \
{gAGAG}A2eA{g}fAef |
{gf}g2dc{g}B{d}G{e}G{d}B :: \
{g}((3cBA){g}eAae{A}ed | \
{g}((3cBA){g}eA{g}c{d}A{e}Ad |
{g}((3cBA){g}eAag{a}ef | \
{gf}g2dc{g}B{d}G{e}G{d}B :|
